X: 16001
T: Great Barrier, The
R: reel
M: 4/4
K: Eminor
|:GA|BE ~E2 ~E2 DE|G/B/G BG AcBA|BE ~E2 ~E2 DE|G2 BG A2 cA|
BE ~E2 ~E2 DE|G/B/G BG A2 ^GA|BedB AcBA|GEFD EF:|
GA|:Be ~e2 BE ~E2|Be ~e2 gfed|Be ~e2 BE ~E2|FDEF DEFA|
Be ~e2 BE ~E2|Be^de g2 ga|b/a/g a/g/f gfed|1 AFDF AcBA:|2 AFED EF||

